packages/foundations/assets/icons/functional/images/audio & video/volume_disabled.svg

<svg xmlns="http://www.w3.org/2000/svg" width="32" height="32" fill="none"><path fill="#1A1C1F" fill-rule="evenodd" d="M26.613 4.081c-.102.046-.558.454-1.013.906l-.827.823-.638-.398c-.564-.352-.669-.399-.895-.399-.335 0-.562.1-.771.338-.147.167-.282.477-.282.649 0 .342.285.736.711.984.151.089.311.185.355.214.065.042-.132.265-1.009 1.144l-1.09 1.091-.222-.13c-.258-.151-.738-.178-.975-.054-.515.269-.676.812-.403 1.36l.141.282-1.847 1.848L16 14.586l-.001-3.893c-.001-3.687-.007-3.905-.101-4.113-.155-.34-.428-.518-.836-.544-.269-.017-.376 0-.518.084-.099.058-1.465 1.175-3.037 2.482L8.65 10.977 6.552 11c-1.812.019-2.139.035-2.392.116-.709.226-1.408.774-1.746 1.368a4 4 0 0 0-.289.689c-.123.395-.125.431-.125 2.854l.001 2.453.145.431c.268.79.844 1.449 1.565 1.791.592.28.874.309 3.009.313l1.947.003.24.211.24.21-2.492 2.494c-1.713 1.714-2.517 2.556-2.573 2.692-.323.782.419 1.579 1.232 1.322.169-.053 2.178-2.035 11.345-11.193C24.428 8.992 27.828 5.562 27.898 5.413c.203-.434.06-.978-.325-1.233-.258-.171-.697-.216-.96-.099m.253 5.293c-.374.374-.679.694-.679.71s.155.29.345.61a10.43 10.43 0 0 1 .358 9.985c-.55 1.094-1.037 1.782-1.872 2.642-.638.658-1.186 1.107-1.887 1.546-.582.365-.81.593-.89.89-.106.395.037.771.401 1.048.156.119.266.155.524.17.314.019.346.008.788-.257 2.171-1.302 4.01-3.404 5.002-5.716A12.3 12.3 0 0 0 29.988 16c-.005-1.988-.414-3.726-1.302-5.527-.318-.647-1.017-1.78-1.098-1.78-.024 0-.349.307-.722.681m-14.594 8.941-1.702 1.702-.46-.403c-.733-.643-.498-.596-3.15-.627-2.581-.03-2.51-.019-2.787-.438l-.146-.221v-4.656l.15-.227c.283-.428.289-.429 2.76-.43 1.792-.001 2.205-.016 2.4-.082.174-.06.817-.57 2.423-1.921l2.187-1.84.013 3.72.014 3.72zm11.324-5.659-.708.737-.338.353.161.5c.088.275.189.703.225.949.086.59.036 1.604-.108 2.192-.136.556-.542 1.402-.895 1.866-.389.513-1.097 1.154-1.705 1.547-.582.376-.755.57-.799.9a.995.995 0 0 0 .597 1.081c.42.19.658.115 1.543-.487.899-.612 1.775-1.504 2.335-2.378.411-.642.77-1.556.958-2.439.092-.433.116-.728.118-1.45.002-1.005-.07-1.494-.343-2.328-.169-.518-.536-1.343-.621-1.396-.028-.017-.217.142-.42.353m-9.489 9.504c-1.207 1.183-1.848 1.848-1.814 1.88.087.081 1.959 1.632 2.127 1.761.53.409 1.34.14 1.527-.507.039-.135.053-.976.042-2.583l-.016-2.381z"/></svg>

<svg width="32" height="32" viewBox="0 0 32 32" fill="none" xmlns="http://www.w3.org/2000/svg"><path d="M26.613 4.081 C 26.511 4.127,26.055 4.535,25.600 4.987 L 24.773 5.810 24.135 5.412 C 23.571 5.060,23.466 5.013,23.240 5.013 C 22.905 5.013,22.678 5.113,22.469 5.351 C 22.322 5.518,22.187 5.828,22.187 6.000 C 22.187 6.342,22.472 6.736,22.898 6.984 C 23.049 7.073,23.209 7.169,23.253 7.198 C 23.318 7.240,23.121 7.463,22.244 8.342 L 21.154 9.433 20.932 9.303 C 20.674 9.152,20.194 9.125,19.957 9.249 C 19.442 9.518,19.281 10.061,19.554 10.609 L 19.695 10.891 17.848 12.739 L 16.000 14.586 15.999 10.693 C 15.998 7.006,15.992 6.788,15.898 6.580 C 15.743 6.240,15.470 6.062,15.062 6.036 C 14.793 6.019,14.686 6.036,14.544 6.120 C 14.445 6.178,13.079 7.295,11.507 8.602 L 8.650 10.977 6.552 11.000 C 4.740 11.019,4.413 11.035,4.160 11.116 C 3.451 11.342,2.752 11.890,2.414 12.484 C 2.323 12.643,2.193 12.953,2.125 13.173 C 2.002 13.568,2.000 13.604,2.000 16.027 L 2.001 18.480 2.146 18.911 C 2.414 19.701,2.990 20.360,3.711 20.702 C 4.303 20.982,4.585 21.011,6.720 21.015 L 8.667 21.018 8.907 21.229 L 9.147 21.439 6.655 23.933 C 4.942 25.647,4.138 26.489,4.082 26.625 C 3.759 27.407,4.501 28.204,5.314 27.947 C 5.483 27.894,7.492 25.912,16.659 16.754 C 24.428 8.992,27.828 5.562,27.898 5.413 C 28.101 4.979,27.958 4.435,27.573 4.180 C 27.315 4.009,26.876 3.964,26.613 4.081 M26.866 9.374 C 26.492 9.748,26.187 10.068,26.187 10.084 C 26.187 10.100,26.342 10.374,26.532 10.694 C 28.342 13.735,28.477 17.521,26.890 20.679 C 26.340 21.773,25.853 22.461,25.018 23.321 C 24.380 23.979,23.832 24.428,23.131 24.867 C 22.549 25.232,22.321 25.460,22.241 25.757 C 22.135 26.152,22.278 26.528,22.642 26.805 C 22.798 26.924,22.908 26.960,23.166 26.975 C 23.480 26.994,23.512 26.983,23.954 26.718 C 26.125 25.416,27.964 23.314,28.956 21.002 C 29.659 19.363,29.992 17.749,29.988 16.000 C 29.983 14.012,29.574 12.274,28.686 10.473 C 28.368 9.826,27.669 8.693,27.588 8.693 C 27.564 8.693,27.239 9.000,26.866 9.374 M12.272 18.315 L 10.570 20.017 10.110 19.614 C 9.377 18.971,9.612 19.018,6.960 18.987 C 4.379 18.957,4.450 18.968,4.173 18.549 L 4.027 18.328 4.027 16.000 L 4.027 13.672 4.177 13.445 C 4.460 13.017,4.466 13.016,6.937 13.015 C 8.729 13.014,9.142 12.999,9.337 12.933 C 9.511 12.873,10.154 12.363,11.760 11.012 L 13.947 9.172 13.960 12.892 L 13.974 16.612 12.272 18.315 M23.596 12.656 C 23.393 12.867,23.074 13.199,22.888 13.393 L 22.550 13.746 22.711 14.246 C 22.799 14.521,22.900 14.949,22.936 15.195 C 23.022 15.785,22.972 16.799,22.828 17.387 C 22.692 17.943,22.286 18.789,21.933 19.253 C 21.544 19.766,20.836 20.407,20.228 20.800 C 19.646 21.176,19.473 21.370,19.429 21.700 C 19.365 22.176,19.589 22.582,20.026 22.781 C 20.446 22.971,20.684 22.896,21.569 22.294 C 22.468 21.682,23.344 20.790,23.904 19.916 C 24.315 19.274,24.674 18.360,24.862 17.477 C 24.954 17.044,24.978 16.749,24.980 16.027 C 24.982 15.022,24.910 14.533,24.637 13.699 C 24.468 13.181,24.101 12.356,24.016 12.303 C 23.988 12.286,23.799 12.445,23.596 12.656 M14.107 22.160 C 12.900 23.343,12.259 24.008,12.293 24.040 C 12.380 24.121,14.252 25.672,14.420 25.801 C 14.950 26.210,15.760 25.941,15.947 25.294 C 15.986 25.159,16.000 24.318,15.989 22.711 L 15.973 20.330 14.107 22.160 " fill="#1A1C1F" stroke="none" fill-rule="evenodd"></path></svg>
